;FLAVOR:Marlin
;TIME:7611
;Filament used: 6.75196m
;Layer height: 0.3
;MINX:81.515
;MINY:81.516
;MINZ:0.28
;MAXX:138.485
;MAXY:138.485
;MAXZ:192.88
;Generated with Cura_SteamEngine master
M140 S60
M105
M190 S60
M104 S200
M105
M109 S200
M82 ;absolute extrusion mode
; Ender 3 Custom Start G-code
G92 E0 ; Reset Extruder
G28 ; Home all axes
G1 Z2.0 F3000 ; Move Z Axis up little to prevent scratching of Heat Bed
G1 X0.1 Y20 Z0.3 F5000.0 ; Move to start position
G1 X0.1 Y200.0 Z0.3 F1500.0 E15 ; Draw the first line
G1 X0.4 Y200.0 Z0.3 F5000.0 ; Move to side a little
G1 X0.4 Y20 Z0.3 F1500.0 E30 ; Draw the second line
G92 E0 ; Reset Extruder
G1 Z2.0 F3000 ; Move Z Axis up little to prevent scratching of Heat Bed
G1 X5 Y20 Z0.3 F5000.0 ; Move over to prevent blob squish
G92 E0
G92 E0
G1 F2700 E-5
;LAYER_COUNT:643
;LAYER:0
M107
G0 F6000 X88.647 Y91.352 Z0.28
;TYPE:SKIRT
G1 F2700 E0
G1 F1200 X91.446 Y88.554 E0.18429
G1 X92.06 Y87.958 E0.22413
G1 X92.76 Y87.334 E0.2678
G1 X93.511 Y86.773 E0.31145
G1 X94.566 Y86.135 E0.36886
G1 X95.251 Y85.772 E0.40495
G1 X99.094 Y83.813 E0.60581
G1 X99.723 Y83.503 E0.63846
G1 X100.581 Y83.125 E0.68212
G1 X101.469 Y82.821 E0.72582
G1 X102.693 Y82.534 E0.78436
G1 X103.656 Y82.367 E0.82987
G1 X107.759 Y81.719 E1.0233
G1 X108.446 Y81.621 E1.05561
G1 X109.379 Y81.528 E1.09927
G1 X110.317 Y81.516 E1.14295
G1 X111.557 Y81.622 E1.2009
G1 X112.459 Y81.752 E1.24333
G1 X116.63 Y82.413 E1.43998
G1 X117.275 Y82.525 E1.47046
G1 X118.191 Y82.725 E1.51412
G1 X119.087 Y83.002 E1.55779
G1 X120.232 Y83.484 E1.61564
G1 X120.969 Y83.845 E1.65385
G1 X124.641 Y85.716 E1.84575
G1 X125.398 Y86.113 E1.88555
G1 X126.209 Y86.585 E1.92924
G1 X126.976 Y87.124 E1.9729
G1 X127.942 Y87.96 E2.03238
G1 X128.623 Y88.623 E2.07664
G1 X131.569 Y91.571 E2.2707
G1 X132.035 Y92.051 E2.30186
G1 X132.659 Y92.751 E2.34552
G1 X133.222 Y93.502 E2.38923
G1 X133.859 Y94.556 E2.44657
G1 X134.307 Y95.402 E2.49115
G1 X136.199 Y99.117 E2.68528
G1 X136.501 Y99.731 E2.71714
G1 X136.878 Y100.59 E2.76082
G1 X137.182 Y101.477 E2.80448
G1 X137.465 Y102.69 E2.86248
G1 X137.636 Y103.674 E2.90898
G1 X138.274 Y107.713 E3.09939
G1 X138.376 Y108.418 E3.13256
G1 X138.47 Y109.351 E3.17622
G1 X138.485 Y110.289 E3.21991
G1 X138.379 Y111.545 E3.2786
G1 X138.244 Y112.486 E3.32286
G1 X137.617 Y116.445 E3.50951
G1 X137.474 Y117.272 E3.54859
G1 X137.275 Y118.189 E3.59228
G1 X136.998 Y119.085 E3.63595
G1 X136.519 Y120.223 E3.69345
G1 X136.069 Y121.14 E3.74101
G1 X134.215 Y124.775 E3.93101
G1 X133.904 Y125.367 E3.96215
G1 X133.548 Y125.993 E3.99569
G1 X133.027 Y126.773 E4.03936
G1 X132.441 Y127.505 E4.08302
G1 X132.063 Y127.918 E4.10909
G1 X131.519 Y128.481 E4.14555
G1 X128.436 Y131.564 E4.34857
G1 X127.953 Y132.033 E4.37992
G1 X127.253 Y132.657 E4.42358
G1 X126.502 Y133.219 E4.46726
G1 X125.439 Y133.861 E4.52509
G1 X124.546 Y134.333 E4.57212
G1 X120.947 Y136.167 E4.76021
G1 X120.271 Y136.5 E4.7953
G1 X119.413 Y136.878 E4.83895
G1 X118.525 Y137.182 E4.88266
G1 X117.289 Y137.47 E4.94175
G1 X116.356 Y137.631 E4.98584
G1 X112.283 Y138.274 E5.17785
G1 X111.576 Y138.376 E5.21111
G1 X110.643 Y138.471 E5.25478
G1 X109.705 Y138.485 E5.29846
G1 X108.445 Y138.378 E5.35734
G1 X107.503 Y138.242 E5.40166
G1 X103.568 Y137.619 E5.58717
G1 X102.736 Y137.476 E5.62648
G1 X101.819 Y137.278 E5.67016
G1 X100.923 Y137.002 E5.71382
G1 X99.756 Y136.511 E5.77277
G1 X98.902 Y136.09 E5.81711
G1 X95.207 Y134.206 E6.01024
G1 X94.598 Y133.885 E6.04229
G1 X93.788 Y133.413 E6.08595
G1 X93.02 Y132.873 E6.12966
G1 X92.068 Y132.05 E6.18826
G1 X91.502 Y131.501 E6.22498
G1 X88.545 Y128.545 E6.41967
G1 X87.964 Y127.948 E6.45846
G1 X87.34 Y127.248 E6.50212
G1 X86.778 Y126.498 E6.54576
G1 X86.133 Y125.43 E6.60386
G1 X85.683 Y124.576 E6.64881
G1 X83.83 Y120.94 E6.83884
G1 X83.497 Y120.263 E6.87397
G1 X83.12 Y119.405 E6.91761
G1 X82.817 Y118.517 E6.96129
G1 X82.531 Y117.295 E7.01973
G1 X82.375 Y116.393 E7.06236
G1 X81.721 Y112.255 E7.25743
G1 X81.624 Y111.584 E7.289
G1 X81.53 Y110.651 E7.33267
G1 X81.515 Y109.713 E7.37635
G1 X81.622 Y108.451 E7.43532
G1 X81.761 Y107.488 E7.48063
G1 X82.406 Y103.418 E7.67251
G1 X82.524 Y102.734 E7.70483
G1 X82.723 Y101.817 E7.74852
G1 X82.999 Y100.921 E7.79218
G1 X83.491 Y99.755 E7.85111
G1 X83.924 Y98.875 E7.89678
G1 X85.788 Y95.219 E8.08787
G1 X86.111 Y94.605 E8.12017
G1 X86.582 Y93.794 E8.16384
G1 X87.121 Y93.027 E8.20749
G1 X87.962 Y92.055 E8.26734
G1 X88.647 Y91.352 E8.31305
G0 F6000 X88.93 Y91.635
G1 F1200 X91.844 Y88.724 E8.50484
G1 X92.338 Y88.245 E8.53688
G1 X93.026 Y87.633 E8.57976
G1 X93.765 Y87.084 E8.62263
G1 X94.754 Y86.489 E8.67637
G1 X95.588 Y86.048 E8.7203
G1 X99.271 Y84.172 E8.91276
G1 X99.9 Y83.862 E8.94541
G1 X100.743 Y83.491 E8.9883
G1 X101.614 Y83.195 E9.03114
G1 X102.762 Y82.928 E9.08602
G1 X103.719 Y82.762 E9.13125
G1 X107.815 Y82.115 E9.32434
G1 X108.502 Y82.017 E9.35665
G1 X109.418 Y81.927 E9.39951
G1 X110.339 Y81.916 E9.4424
G1 X111.5 Y82.018 E9.49667
G1 X112.396 Y82.147 E9.53882
G1 X116.561 Y82.807 E9.73518
G1 X117.206 Y82.919 E9.76566
G1 X118.106 Y83.116 E9.80856
G1 X118.985 Y83.39 E9.85144
G1 X120.056 Y83.844 E9.9056
G1 X120.944 Y84.28 E9.95167
G1 X124.581 Y86.135 E10.14177
G1 X125.212 Y86.467 E10.17498
G1 X126.007 Y86.931 E10.21784
G1 X126.759 Y87.462 E10.2607
G1 X127.664 Y88.247 E10.31649
G1 X128.34 Y88.906 E10.36045
G1 X131.282 Y91.849 E10.55422
G1 X131.748 Y92.329 E10.58537
G1 X132.36 Y93.017 E10.62825
G1 X132.91 Y93.755 E10.6711
G1 X133.506 Y94.744 E10.72487
G1 X133.95 Y95.584 E10.76911
G1 X135.84 Y99.294 E10.96299
G1 X136.142 Y99.908 E10.99485
G1 X136.512 Y100.751 E11.03772
G1 X136.807 Y101.623 E11.08058
G1 X137.071 Y102.759 E11.13489
G1 X137.241 Y103.737 E11.18111
G1 X137.878 Y107.77 E11.37124
G1 X137.98 Y108.475 E11.40441
G1 X138.072 Y109.391 E11.44727
G1 X138.084 Y110.312 E11.49016
G1 X137.983 Y111.488 E11.54512
G1 X137.849 Y112.423 E11.58911
G1 X137.222 Y116.382 E11.77575
G1 X137.08 Y117.204 E11.81459
G1 X136.884 Y118.103 E11.85744
G1 X136.61 Y118.982 E11.90031
G1 X136.16 Y120.047 E11.95415
G1 X135.713 Y120.958 E12.0014
G1 X133.861 Y124.589 E12.19119
G1 X133.55 Y125.181 E12.22233
G1 X133.207 Y125.785 E12.25468
G1 X132.694 Y126.55 E12.29757
G1 X132.117 Y127.268 E12.34046
G1 X131.775 Y127.64 E12.36399
G1 X131.231 Y128.203 E12.40044
G1 X128.157 Y131.277 E12.60287
G1 X127.674 Y131.746 E12.63422
G1 X126.987 Y132.358 E12.67706
G1 X126.248 Y132.908 E12.71995
G1 X125.252 Y133.508 E12.7741
G1 X124.364 Y133.977 E12.82086
G1 X120.77 Y135.808 E13.00868
G1 X120.094 Y136.141 E13.04377
G1 X119.251 Y136.511 E13.08664
G1 X118.38 Y136.808 E13.12949
G1 X117.221 Y137.076 E13.18488
G1 X116.293 Y137.236 E13.22873
G1 X112.226 Y137.878 E13.42045
G1 X111.519 Y137.98 E13.45371
G1 X110.603 Y138.072 E13.49658
G1 X109.682 Y138.084 E13.53947
G1 X108.502 Y137.982 E13.59462
G1 X107.565 Y137.847 E13.6387
G1 X103.63 Y137.224 E13.82421
G1 X102.804 Y137.082 E13.86324
G1 X101.904 Y136.887 E13.90612
G1 X101.025 Y136.614 E13.94898
G1 X99.933 Y136.152 E14.00419
G1 X99.084 Y135.734 E14.04825
G1 X95.393 Y133.852 E14.24117
G1 X94.784 Y133.531 E14.27323
G1 X93.989 Y133.067 E14.31609
G1 X93.238 Y132.535 E14.35895
G1 X92.347 Y131.763 E14.41384
G1 X91.781 Y131.214 E14.45056
G1 X88.718 Y128.151 E14.65226
G1 X88.251 Y127.67 E14.68348
G1 X87.639 Y126.982 E14.72636
G1 X87.089 Y126.244 E14.76921
G1 X86.487 Y125.243 E14.8236
G1 X86.039 Y124.395 E14.86826
G1 X84.189 Y120.764 E15.05802
G1 X83.856 Y120.087 E15.09315
G1 X83.486 Y119.244 E15.13602
G1 X83.191 Y118.372 E15.17888
G1 X82.925 Y117.227 E15.23362
G1 X82.77 Y116.331 E15.27596
G1 X82.117 Y112.198 E15.4708
G1 X82.02 Y111.527 E15.50236
G1 X81.928 Y110.611 E15.54523
G1 X81.916 Y109.69 E15.58812
G1 X82.018 Y108.507 E15.64341
G1 X82.156 Y107.551 E15.68839
G1 X82.8 Y103.486 E15.88003
G1 X82.918 Y102.802 E15.91235
G1 X83.114 Y101.902 E15.95524
G1 X83.387 Y101.023 E15.9981
G1 X83.85 Y99.931 E16.05333
G1 X84.28 Y99.057 E16.09869
G1 X86.142 Y95.405 E16.28957
G1 X86.465 Y94.791 E16.32187
G1 X86.928 Y93.996 E16.36471
G1 X87.459 Y93.243 E16.40761
G1 X88.249 Y92.334 E16.46369
G1 X88.93 Y91.635 E16.50913
G0 F6000 X89.213 Y91.918
G1 F1200 X92.123 Y89.011 E16.70066
G1 X92.617 Y88.532 E16.7327
G1 X93.292 Y87.933 E16.77473
G1 X94.018 Y87.396 E16.81678
G1 X94.941 Y86.842 E16.8669
G1 X95.77 Y86.404 E16.91056
G1 X99.325 Y84.592 E17.09636
G1 X100.077 Y84.221 E17.1354
G1 X100.904 Y83.858 E17.17746
G1 X101.76 Y83.569 E17.21953
G1 X102.831 Y83.322 E17.27071
G1 X103.781 Y83.157 E17.31561
G1 X107.717 Y82.534 E17.50116
G1 X108.559 Y82.413 E17.54077
G1 X109.457 Y82.325 E17.58279
G1 X110.36 Y82.317 E17.62484
G1 X111.443 Y82.414 E17.67547
G1 X112.334 Y82.542 E17.71738
G1 X116.493 Y83.201 E17.91346
G1 X117.138 Y83.313 E17.94394
G1 X118.02 Y83.507 E17.98599
G1 X118.882 Y83.778 E18.02807
G1 X119.88 Y84.203 E18.07858
G1 X120.763 Y84.637 E18.12439
G1 X124.394 Y86.489 E18.31419
G1 X125.025 Y86.821 E18.34739
G1 X125.805 Y87.277 E18.38946
G1 X126.542 Y87.799 E18.43152
G1 X127.385 Y88.533 E18.48356
G1 X127.954 Y89.086 E18.52051
G1 X130.995 Y92.128 E18.7208
G1 X131.461 Y92.608 E18.75195
G1 X132.061 Y93.283 E18.794
G1 X132.599 Y94.009 E18.83608
G1 X133.153 Y94.931 E18.88617
G1 X133.594 Y95.765 E18.9301
G1 X135.481 Y99.47 E19.1237
G1 X135.783 Y100.084 E19.15556
G1 X136.145 Y100.911 E19.1976
G1 X136.433 Y101.767 E19.23965
G1 X136.677 Y102.828 E19.29035
G1 X136.846 Y103.799 E19.33624
G1 X137.482 Y107.827 E19.52613
G1 X137.584 Y108.532 E19.5593
G1 X137.674 Y109.431 E19.60137
G1 X137.683 Y110.334 E19.64342
G1 X137.587 Y111.432 E19.69474
G1 X137.453 Y112.361 E19.73844
G1 X136.802 Y116.467 E19.93203
G1 X136.686 Y117.136 E19.96364
G1 X136.493 Y118.018 E20.00568
G1 X136.222 Y118.879 E20.04771
G1 X135.8 Y119.871 E20.09791
G1 X135.356 Y120.777 E20.14489
G1 X133.507 Y124.403 E20.33442
G1 X133.196 Y124.995 E20.36556
G1 X132.865 Y125.577 E20.39673
G1 X132.362 Y126.327 E20.43878
G1 X131.794 Y127.03 E20.48087
G1 X131.487 Y127.362 E20.50192
G1 X130.943 Y127.925 E20.53838
G1 X127.879 Y130.99 E20.74018
G1 X127.396 Y131.459 E20.77153
G1 X126.721 Y132.059 E20.81358
G1 X125.995 Y132.596 E20.85563
G1 X125.065 Y133.154 E20.90613
G1 X124.183 Y133.62 E20.95258
G1 X120.593 Y135.449 E21.14019
G1 X119.917 Y135.782 E21.17528
G1 X119.09 Y136.145 E21.21734
G1 X118.234 Y136.433 E21.25939
G1 X117.152 Y136.682 E21.31109
G1 X116.231 Y136.841 E21.35461
G1 X112.306 Y137.462 E21.53965
G1 X111.461 Y137.584 E21.5794
G1 X110.563 Y137.674 E21.62143
G1 X109.66 Y137.683 E21.66348
G1 X108.559 Y137.586 E21.71494
G1 X107.628 Y137.452 E21.75874
G1 X103.556 Y136.806 E21.95072
G1 X102.871 Y136.688 E21.98309
G1 X101.989 Y136.495 E22.02513
G1 X101.127 Y136.226 E22.06718
G1 X100.109 Y135.793 E22.11869
G1 X99.265 Y135.377 E22.1625
G1 X95.58 Y133.498 E22.35511
G1 X94.971 Y133.177 E22.38717
G1 X94.191 Y132.721 E22.42924
G1 X93.455 Y132.198 E22.47128
G1 X92.625 Y131.476 E22.5225
G1 X92.059 Y130.927 E22.55922
G1 X89.005 Y127.872 E22.76037
G1 X88.538 Y127.391 E22.79158
G1 X87.938 Y126.716 E22.83364
G1 X87.4 Y125.99 E22.87571
G1 X86.84 Y125.056 E22.92642
G1 X86.395 Y124.213 E22.97081
G1 X84.548 Y120.587 E23.16029
G1 X84.215 Y119.91 E23.19542
G1 X83.853 Y119.083 E23.23746
G1 X83.565 Y118.227 E23.27951
G1 X83.319 Y117.158 E23.33059
G1 X83.165 Y116.268 E23.37265
G1 X82.533 Y112.276 E23.56085
G1 X82.416 Y111.469 E23.59882
G1 X82.326 Y110.571 E23.64084
G1 X82.317 Y109.668 E23.68289
G1 X82.414 Y108.564 E23.7345
G1 X82.551 Y107.613 E23.77924
G1 X83.194 Y103.554 E23.9706
G1 X83.312 Y102.87 E24.00292
G1 X83.505 Y101.988 E24.04496
G1 X83.775 Y101.126 E24.08702
G1 X84.209 Y100.107 E24.13859
G1 X84.637 Y99.239 E24.18366
G1 X86.496 Y95.591 E24.37431
G1 X86.819 Y94.977 E24.40661
G1 X87.274 Y94.197 E24.44866
G1 X87.797 Y93.461 E24.4907
G1 X88.536 Y92.613 E24.54308
G1 X89.213 Y91.918 E24.58826
G1 F2700 E19.58826
;MESH:overcup.stl
G0 F6000 X95.407 Y99.207
G0 X96.104 Y99.903
G0 X93.713 Y104.707
G0 X92.875 Y110
G0 X93.713 Y115.292
G0 X96.146 Y120.067
G0 X99.933 Y123.854
G0 X104.707 Y126.287
G0 X110 Y127.185
G0 X110 Y127.297
;TYPE:WALL-OUTER
G1 F2700 E24.58826
G1 F1200 X104.653 Y126.451 E24.84034
G1 X99.832 Y123.994 E25.09229
G1 X96.006 Y120.168 E25.34424
G1 X93.549 Y115.346 E25.59624
G1 X92.703 Y110 E25.84827
G1 X93.549 Y104.653 E26.10035
G1 X96.006 Y99.831 E26.35235
G1 X99.834 Y96.006 E26.60433
G1 X104.653 Y93.549 E26.85621
G1 X110.004 Y92.703 E27.10847
G1 X115.347 Y93.549 E27.36036
G1 X120.169 Y96.007 E27.61238
G1 X123.994 Y99.832 E27.86426
G1 X126.451 Y104.653 E28.11622
G1 X127.297 Y110 E28.3683
G1 X126.451 Y115.346 E28.62033
G1 X123.993 Y120.169 E28.87239
G1 X120.169 Y123.994 E29.12424
G1 X115.347 Y126.451 E29.37624
G1 X110 Y127.297 E29.62832
G0 F6000 X110 Y126.901
;TYPE:SKIN
G1 F1200 X104.771 Y126.074 E29.87483
G1 X100.063 Y123.675 E30.12087
G1 X96.325 Y119.937 E30.36702
G1 X93.926 Y115.228 E30.61311
G1 X93.099 Y110 E30.85957
G1 X93.926 Y104.771 E31.10608
G1 X96.325 Y100.062 E31.35217
G1 X100.063 Y96.325 E31.59829
G1 X104.771 Y93.926 E31.84434
G1 X110.004 Y93.099 E32.09103
G1 X115.229 Y93.926 E32.33736
G1 X119.938 Y96.326 E32.58346
G1 X123.675 Y100.063 E32.82955
G1 X126.074 Y104.771 E33.0756
G1 X126.901 Y110 E33.32211
G1 X126.074 Y115.228 E33.56857
G1 X123.674 Y119.939 E33.81476
G1 X119.938 Y123.675 E34.06078
G1 X115.229 Y126.074 E34.30687
G1 X110 Y126.901 E34.55338
G0 F6000 X109.956 Y127.178
G0 X104.707 Y126.287
G0 X100.351 Y124.135
G0 X100.551 Y123.744
G1 F1200 X96.254 Y119.447 E34.83634
G0 F6000 X95.863 Y119.645
G0 X95.275 Y118.492
G0 X95.667 Y118.294
G1 F1200 X101.704 Y124.331 E35.23389
G0 F6000 X101.504 Y124.723
G0 X102.658 Y125.311
G0 X102.858 Y124.92
G1 F1200 X95.079 Y117.141 E35.74615
G0 F6000 X94.688 Y117.339
G0 X94.101 Y116.186
G0 X94.492 Y115.988
G1 F1200 X104.011 Y125.507 E36.37299
G0 F6000 X103.811 Y125.898
G0 X104.951 Y126.386
G0 X105.02 Y125.951
G1 F1200 X94.048 Y114.979 E37.09552
G0 F6000 X93.942 Y114.307
G1 F1200 X105.692 Y126.057 E37.86928
G0 F6000 X106.364 Y126.163
G1 F1200 X93.835 Y113.634 E38.69433
G0 F6000 X93.729 Y112.963
G1 F1200 X107.036 Y126.269 E39.57059
G0 F6000 X107.707 Y126.375
G1 F1200 X93.623 Y112.291 E40.49804
G0 F6000 X93.517 Y111.619
G1 F1200 X108.379 Y126.481 E41.47673
G0 F6000 X109.051 Y126.587
G1 F1200 X93.411 Y110.947 E42.50665
G0 F6000 X93.304 Y110.275
G1 F1200 X109.723 Y126.693 E43.58784
G0 F6000 X110.286 Y126.691
G1 F1200 X93.306 Y109.711 E44.706
G0 F6000 X93.384 Y109.223
G1 F1200 X110.775 Y126.614 E45.85123
G0 F6000 X111.263 Y126.537
G1 F1200 X93.461 Y108.734 E47.02355
G0 F6000 X93.538 Y108.246
G1 F1200 X111.752 Y126.46 E48.22298
G0 F6000 X112.241 Y126.383
G1 F1200 X93.615 Y107.757 E49.44953
G0 F6000 X93.692 Y107.268
G1 F1200 X112.729 Y126.306 E50.70318
G0 F6000 X113.218 Y126.229
G1 F1200 X93.769 Y106.78 E51.98393
G0 F6000 X93.846 Y106.291
G1 F1200 X113.707 Y126.152 E53.29181
G0 F6000 X114.195 Y126.075
G1 F1200 X93.923 Y105.802 E54.62679
G0 F6000 X94 Y105.314
G1 F1200 X114.684 Y125.997 E55.98883
G0 F6000 X115.172 Y125.92
G1 F1200 X94.078 Y104.826 E57.37791
G0 F6000 X94.267 Y104.449
G1 F1200 X115.549 Y125.731 E58.77937
G0 F6000 X115.923 Y125.54
G1 F1200 X94.458 Y104.074 E60.19291
G0 F6000 X94.649 Y103.7
G1 F1200 X116.298 Y125.349 E61.61853
G0 F6000 X116.673 Y125.158
G1 F1200 X94.839 Y103.325 E63.0563
G0 F6000 X95.03 Y102.95
G1 F1200 X117.048 Y124.967 E64.50619
G0 F6000 X117.422 Y124.776
G1 F1200 X95.221 Y102.575 E65.96817
G0 F6000 X95.412 Y102.2
G1 F1200 X117.797 Y124.585 E67.44226
G0 F6000 X118.172 Y124.394
G1 F1200 X95.603 Y101.826 E68.92843
G0 F6000 X95.794 Y101.451
G1 F1200 X118.547 Y124.204 E70.42676
G0 F6000 X118.921 Y124.013
G1 F1200 X95.985 Y101.076 E71.93716
G0 F6000 X96.176 Y100.701
G1 F1200 X119.296 Y123.822 E73.45969
G0 F6000 X119.671 Y123.631
G1 F1200 X96.367 Y100.327 E74.9943
G0 F6000 X96.608 Y100.002
G1 F1200 X119.996 Y123.39 E76.53444
G0 F6000 X120.279 Y123.107
G1 F1200 X96.891 Y99.719 E78.07457
G0 F6000 X97.174 Y99.436
G1 F1200 X120.562 Y122.825 E79.61475
G0 F6000 X120.845 Y122.542
G1 F1200 X97.456 Y99.154 E81.15492
G0 F6000 X97.739 Y98.871
G1 F1200 X121.128 Y122.259 E82.69509
G0 F6000 X121.41 Y121.976
G1 F1200 X98.022 Y98.588 E84.23523
G0 F6000 X98.305 Y98.305
